X:1
T:Title
%%score { ( 1 3 ) | ( 2 4 ) }
L:1/8
M:4/4
K:Eb
V:1 treble nm="Grand Piano"
V:3 treble 
V:2 treble 
V:4 treble 
V:1
 z8[Q:1/4=94] | z4 z2 [B,EG]>[B,FA] | [EGB]2 [DFB]<[DAB] [EGB]2 z2 | z4 z2 [B,FA]>[B,GB] | %4
 [EAc]2 [DAc]<[DAc] [DAc]2 [Ad]>[DAc] | [GB]>[_G=A] [=GB]>[_GA] [=GB]2 [EG]>[EG] | %6
 [FA]>[=EG] [FA]>[EG] [FA]2 [DF]>[DF] | [EG]>[FA] [GB]>[Ac] [GB]2 [CDB]>[CEA] | %8
[M:7/8] [B,EG]2 [A,DF]>[A,DF] [G,E]3 |[M:1/4] G>A |[M:4/4] B6 z2 | B6 z2 | F>F e>e d>d c>c | %13
[M:3/4] B6 |[M:1/4] [B,FA]>[B,FA] |[M:4/4] [B,EG]>[B,EG] [B,EG]>[B,FA] [EGB]2 [EGB]>[B,EG] | %16
[M:7/8] [A,EA]>[A,EA][A,EA]>[EB] [Ec]3 |[M:1/4] [Ed]>[Ec] |[M:4/4] B>B B>B B2 [CEB]>[CEA] | %19
[M:7/8] [EG]2 [DF]>[DF] E3 |] %20
V:2
 z4 z2 B,>B, | E>E E>E E2[K:bass] E,>E, | E,2 B,,<B,, E,2[K:treble] G>G | %3
 A>A A>A A2[K:bass] B,,>B,, | B,,2 D,<F, B,2 B,>B, | [E,E]>[E,E] [E,E]>[E,E] [E,E]2 [E,B,]>[E,B,] | %6
 [B,,B,]>[B,,B,] [B,,B,]>[B,,B,] [B,,B,]2 [B,,B,]>[B,,B,] | %7
 [E,B,]>[E,B,] [E,E]>[E,E] [E,E]2 A,,>A,, |[M:7/8] B,,2 B,,>B,, E,3 |[M:1/4] z2 | %10
[M:4/4] z2 [E,G,]>[E,A,] [E,B,]2 z2 | z2 [E,G,]>[E,A,] [E,B,]2 [E,B,E]>[E,B,E] | %12
 [F,B,D]>[F,B,D] [F,CF]>[F,CF] [F,B,F]>[F,B,F] [F,=A,E]>[F,A,E] |[M:3/4] z2 C<C B,2 | %14
[M:1/4] B,,>B,, |[M:4/4] E,>E, E,>E, E,2 E,>_D, |[M:7/8] C,>C,C,>[B,,G,] [A,,A,]3 | %17
[M:1/4] [A,,B,]>[A,,A,] |[M:4/4] [E,G,E]>[E,G,E] [F,A,D]>[F,A,D] [G,B,E]2 [A,,A,]>[A,,A,] | %19
[M:7/8] [B,,B,]2 [B,,A,]>[B,,A,] [E,G,]3 |] %20
V:3
 x8 | x8 | x8 | x8 | x8 | x8 | x8 | x8 |[M:7/8] x7 |[M:1/4] x2 |[M:4/4] z2 E>F G2 e>c | %11
 z2 E>F G2 G>G | x8 |[M:3/4] [B,D]2 A<A G2 |[M:1/4] x2 |[M:4/4] x8 |[M:7/8] x7 |[M:1/4] x2 | %18
[M:4/4] x8 |[M:7/8] x7 |] %20
V:4
 x8 | x6[K:bass] x2 | x6[K:treble] x2 | x6[K:bass] x2 | x8 | x8 | x8 | x8 |[M:7/8] x7 |[M:1/4] x2 | %10
[M:4/4] x8 | x8 | x8 |[M:3/4] B,,6 |[M:1/4] x2 |[M:4/4] x8 |[M:7/8] x7 |[M:1/4] x2 |[M:4/4] x8 | %19
[M:7/8] x7 |] %20

